Site26/img/svg/tg-ico.svg

<svg width="18" height="17" viewBox="0 0 18 17" fill="none" xmlns="http://www.w3.org/2000/svg">
<path d="M17.866 0.176199C17.7103 0.00182511 17.4646 -0.0449324 17.261 0.0440123L0.315832 7.46192C0.128099 7.54419 0.00470169 7.72806 0.000131413 7.93337C-0.00443886 8.13833 0.110521 8.32747 0.294738 8.41817L4.34084 10.408L5.34911 16.4569C5.38181 16.6865 5.56216 16.8711 5.797 16.9045C5.96575 16.9287 6.13344 16.8693 6.24946 16.7498L9.44373 13.5555L14.0021 16.8117C14.1483 16.9157 14.3367 16.9386 14.5027 16.8728C14.669 16.8071 14.7906 16.6612 14.8258 16.4858L17.9898 0.630414C18.0211 0.473267 17.9807 0.30487 17.866 0.176199ZM4.75849 9.43804L1.77902 7.97274L13.5499 2.81993L4.75849 9.43804ZM6.40871 11.0056L5.91829 13.4578L5.38919 10.2832L11.8568 5.41444L6.5525 10.7367C6.47797 10.8112 6.4284 10.9083 6.40871 11.0056ZM6.72969 14.7779L7.28304 12.0122L8.57362 12.934L6.72969 14.7779ZM13.9511 15.4789L7.73796 11.0412L16.6138 2.13579L13.9511 15.4789Z" fill="black"/>
</svg>

<svg width="18" height="17" fill="none" xmlns="http://www.w3.org/2000/svg">
  <path d="M17.866.1762a.528.528 0 0 0-.605-.1322L.3158 7.462a.5277.5277 0 0 0-.3157.4714.5275.5275 0 0 0 .2946.4848l4.0461 1.9898 1.0083 6.0489a.5273.5273 0 0 0 .9004.2929l3.1942-3.1943 4.5584 3.2562a.5277.5277 0 0 0 .8237-.3259L17.9898.6304a.5257.5257 0 0 0-.1238-.4542ZM4.7585 9.438 1.779 7.9727 13.55 2.82 4.7585 9.438Zm1.6502 1.5676-.4904 2.4522-.5291-3.1746 6.4676-4.8688-5.3043 5.3223a.5353.5353 0 0 0-.1438.2689Zm.321 3.7723.5533-2.7657 1.2906.9218-1.844 1.8439Zm7.2214.701L7.738 11.0412l8.8758-8.9054-2.6627 13.3431Z" fill="#000"/>
</svg>
